X: 20
T: No_28_Song_When_Returning_From_War.krn
N: Derived from No_28_Song_When_Returning_From_War.krn
%%abc-version 2.0
%%abcx-abcm2ps-target-version 5.9.1 (29 Sep 2008)
%%abc-creator hum2abc beta
%%abcx-conversion-date 2019/03/15 08:26:49
%%humdrum-veritas 1788932174
%%humdrum-veritas-data 979132264
%%linebreak <none>
%%barnumbers 0
L: 1/8
M: 2/4
%%staves {1 2}
V: 1 clef=bass
V: 2 clef=bass
K: F
[V:1] [K:clef=bass][M:2/4]z2D,2 ]|:  
[V:2] [K:clef=bass][M:2/4](3G,,G,,G,, (3G,,G,,G,, ]|:  
[V:1] DD DC | 
[V:2] (3G,,G,,G,,z2 | 
[V:1] D3A, | 
[V:2] z4 | 
[V:1] A,2A,2 | 
[V:2] z4 | 
[V:1] ED D z | 
[V:2] z4 | 
[V:1] D3C ||  
[V:2] z4 ||  
[V:1] [M:3/4]CD DCC2 ||  
[V:2] [M:3/4]z6 ||  
[V:1] [M:2/4]A,3G, | 
[V:2] [M:2/4]z4 | 
[V:1] G, zG,2 | 
[V:2] z4 | 
[V:1] CA, A,E, | 
[V:2] z4 | 
[V:1] A,3E, ||  
[V:2] z4 ||  
[V:1] [M:3/4]E,A, G,E, E, z ||  
[V:2] [M:3/4]z6 ||  
[V:1] [M:2/4]D,3E,/C,/ | 
[V:2] [M:2/4]z4 | 
[V:1] A,,2A,,2 | 
[V:2] z4 | 
[V:1] E,D, D, z | 
[V:2] z4 | 
[V:1] D,2D,D, | 
[V:2] z4 | 
[V:1] D,2D,2 :|]  
[V:2] z4 :|]  
[V:1] D,2z2 |]  
[V:2] z4 |]  



